report_00007_2020-12-11T15:55:29.892Z/first-meaningful-paint/comparison/line/12_vs_13.svg

<svg width="640" height="500" xmlns="http://www.w3.org/2000/svg" xmlns:xlink="http://www.w3.org/1999/xlink"><path fill="#fff" d="M0 0h640v500H0z"/><defs><path id="d" stroke-width=".222" stroke="currentColor" d="M-1-1h2v2h-2z"/><path id="b" stroke-width=".222" stroke="currentColor" d="M0-1.33l-1.33 2h2.66z"/><path id="f" stroke-width=".222" stroke="currentColor" d="M0 1.33L1.265.411.782-1.067l-1.564-.009-.483 1.487z"/><use xlink:href="#b" id="c" stroke="currentColor" transform="rotate(180)"/><use xlink:href="#d" id="e" stroke="currentColor" transform="rotate(45)"/><circle id="a" stroke-width=".222" stroke="currentColor" cx="0" cy="0" r="1"/></defs><g fill="none" color="#000" stroke="currentColor"><path stroke="#000" d="M62.2 357.1h9m543.8 0h-9"/><text transform="translate(53.9 361)" stroke="none" fill="#000" font-family="Arial" font-size="12" text-anchor="end"><tspan>1520</tspan></text></g><g fill="none" color="#000" stroke="currentColor"><path stroke="#000" d="M62.2 314.6h9m543.8 0h-9"/><text transform="translate(53.9 318.5)" stroke="none" fill="#000" font-family="Arial" font-size="12" text-anchor="end"><tspan>1540</tspan></text></g><g fill="none" color="#000" stroke="currentColor"><path stroke="#000" d="M62.2 272h9m543.8 0h-9"/><text transform="translate(53.9 275.9)" stroke="none" fill="#000" font-family="Arial" font-size="12" text-anchor="end"><tspan>1560</tspan></text></g><g fill="none" color="#000" stroke="currentColor"><path stroke="#000" d="M62.2 229.5h9m543.8 0h-9"/><text transform="translate(53.9 233.4)" stroke="none" fill="#000" font-family="Arial" font-size="12" text-anchor="end"><tspan>1580</tspan></text></g><g fill="none" color="#000" stroke="currentColor"><path stroke="#000" d="M62.2 186.9h9m543.8 0h-9"/><text transform="translate(53.9 190.8)" stroke="none" fill="#000" font-family="Arial" font-size="12" text-anchor="end"><tspan>1600</tspan></text></g><g fill="none" color="#000" stroke="currentColor"><path stroke="#000" d="M62.2 144.4h9m543.8 0h-9"/><text transform="translate(53.9 148.3)" stroke="none" fill="#000" font-family="Arial" font-size="12" text-anchor="end"><tspan>1620</tspan></text></g><g fill="none" color="#000" stroke="currentColor"><path stroke="#000" d="M62.2 101.8h9m543.8 0h-9"/><text transform="translate(53.9 105.7)" stroke="none" fill="#000" font-family="Arial" font-size="12" text-anchor="end"><tspan>1640</tspan></text></g><g fill="none" color="#000" stroke="currentColor"><path stroke="#000" d="M62.2 59.3h9m543.8 0h-9"/><text transform="translate(53.9 63.2)" stroke="none" fill="#000" font-family="Arial" font-size="12" text-anchor="end"><tspan>1660</tspan></text></g><g fill="none" color="#000" stroke="currentColor"><path stroke="#000" d="M62.2 392v-9m0-364.9v9"/><text transform="translate(62.2 413.9)" stroke="none" fill="#000" font-family="Arial" font-size="12" text-anchor="middle"><tspan>0</tspan></text></g><g fill="none" color="#000" stroke="currentColor"><path stroke="#000" d="M118 392v-9m0-364.9v9"/><text transform="translate(118 413.9)" stroke="none" fill="#000" font-family="Arial" font-size="12" text-anchor="middle"><tspan>10</tspan></text></g><g fill="none" color="#000" stroke="currentColor"><path stroke="#000" d="M173.9 392v-9m0-364.9v9"/><text transform="translate(173.9 413.9)" stroke="none" fill="#000" font-family="Arial" font-size="12" text-anchor="middle"><tspan>20</tspan></text></g><g fill="none" color="#000" stroke="currentColor"><path stroke="#000" d="M229.7 392v-9m0-364.9v9"/><text transform="translate(229.7 413.9)" stroke="none" fill="#000" font-family="Arial" font-size="12" text-anchor="middle"><tspan>30</tspan></text></g><g fill="none" color="#000" stroke="currentColor"><path stroke="#000" d="M285.6 392v-9m0-364.9v9"/><text transform="translate(285.6 413.9)" stroke="none" fill="#000" font-family="Arial" font-size="12" text-anchor="middle"><tspan>40</tspan></text></g><g fill="none" color="#000" stroke="currentColor"><path stroke="#000" d="M341.4 392v-9m0-364.9v9"/><text transform="translate(341.4 413.9)" stroke="none" fill="#000" font-family="Arial" font-size="12" text-anchor="middle"><tspan>50</tspan></text></g><g fill="none" color="#000" stroke="currentColor"><path stroke="#000" d="M397.2 392v-9m0-364.9v9"/><text transform="translate(397.2 413.9)" stroke="none" fill="#000" font-family="Arial" font-size="12" text-anchor="middle"><tspan>60</tspan></text></g><g fill="none" color="#000" stroke="currentColor"><path stroke="#000" d="M453.1 392v-9m0-364.9v9"/><text transform="translate(453.1 413.9)" stroke="none" fill="#000" font-family="Arial" font-size="12" text-anchor="middle"><tspan>70</tspan></text></g><g fill="none" color="#000" stroke="currentColor"><path stroke="#000" d="M508.9 392v-9m0-364.9v9"/><text transform="translate(508.9 413.9)" stroke="none" fill="#000" font-family="Arial" font-size="12" text-anchor="middle"><tspan>80</tspan></text></g><g fill="none" color="#000" stroke="currentColor"><path stroke="#000" d="M564.7 392v-9m0-364.9v9"/><text transform="translate(564.7 413.9)" stroke="none" fill="#000" font-family="Arial" font-size="12" text-anchor="middle"><tspan>90</tspan></text></g><path stroke="#000" d="M62.2 18.1V392H615V18.1H62.2z" fill="none" color="#000"/><text transform="translate(533.3 431.9)" stroke="none" fill="#000" font-family="Arial" font-size="12" text-anchor="end" color="#000"><tspan>pages+cached+noexternal+nofonts+nosvg+noimg+nocss</tspan></text><path stroke="#9400D3" d="M541.6 428h42.2M62.2 52.8l5.6-2.5 5.6 2.5 5.6-7.9 5.5 1 5.6 7.6 5.6-4.5 5.6-1.7 5.6 3 5.6-1.3 5.5 2.6 5.6 2.5 5.6-14.4 5.6 10.5 5.6-.8 5.6 3.2 5.5-2 5.6-14.9 5.6 15.3 5.6-4 5.6-21.7 5.6 26.1 5.5-5.6 5.6 8.9 5.6 1.2 5.6-7.4 5.6-.6 5.6-1.4 5.5 5.7 5.6-1.2 5.6 3.5 5.6-2 5.6-9.1 5.6 7.6 5.6-5.4 5.5 3.4 5.6 2.2 5.6-5.2 5.6 6.1 5.6-4.9 5.6 4.5 5.5-.8 5.6 5.6 5.6-5.7 5.6-1.2 5.6-.2 5.6 1.2 5.5-.2 5.6 6.2 5.6-8.6 5.6 3.5 5.6-.5 5.6.3 5.5 1.1 5.6-6.2 5.6 11.2 5.6-3.9 5.6-.5 5.6-1.4 5.5-2.4 5.6-4.3 5.6 8.6 5.6 1.6 5.6-1.2 5.6-5.2 5.5 3.9 5.6-7.3 5.6 9.5 5.6-6 5.6 3.9 5.6 1 5.6-9.5 5.5 7.6 5.6 3 5.6-16.8 5.6 9.6 5.6 6.4 5.6-2 5.5 1.1 5.6-8.9 5.6 7.6 5.6-4 5.6 2.9 5.6 1.2 5.5-4.4 5.6-.7 5.6 5.8 5.6-1.2 5.6-4.4 5.6 3 5.5 1.2 5.6-3 5.6 3.8 5.6 3.6 5.6-4.4 5.6 2.7 5.5-4.1 5.6-2.3 5.6 7.2 5.6-6" fill="none" color="#000"/><text transform="translate(533.3 449.9)" stroke="none" fill="#000" font-family="Arial" font-size="12" text-anchor="end" color="#000"><tspan>pages+cached+noexternal+nofonts+nosvg+noimg+nocss+nojs</tspan></text><path stroke="#009E73" d="M541.6 446h42.2M62.2 379.3l5.6 3.6 5.6-1.8 5.6 3.4 5.5-5 5.6 3.4 5.6-2.7 5.6 3.6 5.6-4.4 5.6.5 5.5-.2 5.6-2.3 5.6 6.9 5.6-4 5.6 1.2 5.6-1.2 5.5-.1 5.6-1 5.6 2.3 5.6-.8 5.6-1.9 5.6 4.1 5.5-1.9 5.6-.3 5.6-1.6 5.6.8 5.6-1.3 5.6 1.1 5.5 1.2 5.6-1.6 5.6.4 5.6 3 5.6-3.5 5.6 1.9 5.6.6 5.5-3 5.6 3.9 5.6-2.5 5.6.5 5.6 2.3 5.6.5 5.5-4.5 5.6 3.4 5.6-.6 5.6 3.1 5.6-5.1 5.6-.6 5.5-.4 5.6-1 5.6 1.2 5.6 2.4 5.6-.4 5.6-.6 5.5.4 5.6-.4 5.6 1.4 5.6-2.2 5.6-.7 5.6-.1 5.5.4 5.6 1.9 5.6-1.1 5.6-1.1 5.6 2 5.6 2 5.5-.6 5.6-1.7 5.6.4 5.6-1.4 5.6 4.4 5.6-3.3 5.6.3 5.5-.7 5.6.6 5.6-.4 5.6-.8 5.6-.3 5.6.5 5.5 1.5 5.6-1.9 5.6 2.2 5.6-4 5.6 6.5 5.6-6.1 5.5 4.1 5.6-2 5.6.9 5.6 1.7 5.6-3.4 5.6 1.1 5.5.2 5.6.2 5.6-1.4 5.6.3 5.6 4.3 5.6-1.2 5.5-2.1 5.6.8 5.6-3.5 5.6 6.5" fill="none" color="#000"/><text transform="translate(533.3 467.9)" stroke="none" fill="#000" font-family="Arial" font-size="12" text-anchor="end" color="#000"><tspan>score p10=2336</tspan></text><path stroke="#56B4E9" d="M541.6 464h42.2" fill="none" color="#000"/><g><text transform="translate(533.3 485.9)" stroke="none" fill="#000" font-family="Arial" font-size="12" text-anchor="end" color="#000"><tspan>score median=4000</tspan></text><path stroke="#E69F00" d="M541.6 482h42.2" fill="none" color="#000"/></g><g fill="none" color="#000" stroke="currentColor"><path stroke="#000" d="M62.2 18.1V392H615V18.1H62.2z"/></g></svg>

<?xml version="1.0" encoding="utf-8"  standalone="no"?>
<svg 
 width="640" height="500"
 viewBox="0 0 640 500"
 xmlns="http://www.w3.org/2000/svg"
 xmlns:xlink="http://www.w3.org/1999/xlink"
>

<title>Gnuplot</title>
<desc>Produced by GNUPLOT 5.4 patchlevel 0 </desc>

<g id="gnuplot_canvas">

<rect x="0" y="0" width="640" height="500" fill="#ffffff"/>
<defs>

	<circle id='gpDot' r='0.5' stroke-width='0.5' stroke='currentColor'/>
	<path id='gpPt0' stroke-width='0.222' stroke='currentColor' d='M-1,0 h2 M0,-1 v2'/>
	<path id='gpPt1' stroke-width='0.222' stroke='currentColor' d='M-1,-1 L1,1 M1,-1 L-1,1'/>
	<path id='gpPt2' stroke-width='0.222' stroke='currentColor' d='M-1,0 L1,0 M0,-1 L0,1 M-1,-1 L1,1 M-1,1 L1,-1'/>
	<rect id='gpPt3' stroke-width='0.222' stroke='currentColor' x='-1' y='-1' width='2' height='2'/>
	<rect id='gpPt4' stroke-width='0.222' stroke='currentColor' fill='currentColor' x='-1' y='-1' width='2' height='2'/>
	<circle id='gpPt5' stroke-width='0.222' stroke='currentColor' cx='0' cy='0' r='1'/>
	<use xlink:href='#gpPt5' id='gpPt6' fill='currentColor' stroke='none'/>
	<path id='gpPt7' stroke-width='0.222' stroke='currentColor' d='M0,-1.33 L-1.33,0.67 L1.33,0.67 z'/>
	<use xlink:href='#gpPt7' id='gpPt8' fill='currentColor' stroke='none'/>
	<use xlink:href='#gpPt7' id='gpPt9' stroke='currentColor' transform='rotate(180)'/>
	<use xlink:href='#gpPt9' id='gpPt10' fill='currentColor' stroke='none'/>
	<use xlink:href='#gpPt3' id='gpPt11' stroke='currentColor' transform='rotate(45)'/>
	<use xlink:href='#gpPt11' id='gpPt12' fill='currentColor' stroke='none'/>
	<path id='gpPt13' stroke-width='0.222' stroke='currentColor' d='M0,1.330 L1.265,0.411 L0.782,-1.067 L-0.782,-1.076 L-1.265,0.411 z'/>
	<use xlink:href='#gpPt13' id='gpPt14' fill='currentColor' stroke='none'/>
	<filter id='textbox' filterUnits='objectBoundingBox' x='0' y='0' height='1' width='1'>
	  <feFlood flood-color='#FFFFFF' flood-opacity='1' result='bgnd'/>
	  <feComposite in='SourceGraphic' in2='bgnd' operator='atop'/>
	</filter>
	<filter id='greybox' filterUnits='objectBoundingBox' x='0' y='0' height='1' width='1'>
	  <feFlood flood-color='lightgrey' flood-opacity='1' result='grey'/>
	  <feComposite in='SourceGraphic' in2='grey' operator='atop'/>
	</filter>
</defs>
<g fill="none" color="#FFFFFF" stroke="black" stroke-width="1.00" stroke-linecap="butt" stroke-linejoin="miter">
</g>
<g fill="none" color="black" stroke="currentColor" stroke-width="1.00" stroke-linecap="butt" stroke-linejoin="miter">
	<path stroke='black'  d='M62.2,357.1 L71.2,357.1 M615.0,357.1 L606.0,357.1  '/>	<g transform="translate(53.9,361.0)" stroke="none" fill="black" font-family="Arial" font-size="12.00"  text-anchor="end">
		<text><tspan font-family="Arial" > 1520</tspan></text>
	</g>
</g>
<g fill="none" color="black" stroke="currentColor" stroke-width="1.00" stroke-linecap="butt" stroke-linejoin="miter">
	<path stroke='black'  d='M62.2,314.6 L71.2,314.6 M615.0,314.6 L606.0,314.6  '/>	<g transform="translate(53.9,318.5)" stroke="none" fill="black" font-family="Arial" font-size="12.00"  text-anchor="end">
		<text><tspan font-family="Arial" > 1540</tspan></text>
	</g>
</g>
<g fill="none" color="black" stroke="currentColor" stroke-width="1.00" stroke-linecap="butt" stroke-linejoin="miter">
	<path stroke='black'  d='M62.2,272.0 L71.2,272.0 M615.0,272.0 L606.0,272.0  '/>	<g transform="translate(53.9,275.9)" stroke="none" fill="black" font-family="Arial" font-size="12.00"  text-anchor="end">
		<text><tspan font-family="Arial" > 1560</tspan></text>
	</g>
</g>
<g fill="none" color="black" stroke="currentColor" stroke-width="1.00" stroke-linecap="butt" stroke-linejoin="miter">
	<path stroke='black'  d='M62.2,229.5 L71.2,229.5 M615.0,229.5 L606.0,229.5  '/>	<g transform="translate(53.9,233.4)" stroke="none" fill="black" font-family="Arial" font-size="12.00"  text-anchor="end">
		<text><tspan font-family="Arial" > 1580</tspan></text>
	</g>
</g>
<g fill="none" color="black" stroke="currentColor" stroke-width="1.00" stroke-linecap="butt" stroke-linejoin="miter">
	<path stroke='black'  d='M62.2,186.9 L71.2,186.9 M615.0,186.9 L606.0,186.9  '/>	<g transform="translate(53.9,190.8)" stroke="none" fill="black" font-family="Arial" font-size="12.00"  text-anchor="end">
		<text><tspan font-family="Arial" > 1600</tspan></text>
	</g>
</g>
<g fill="none" color="black" stroke="currentColor" stroke-width="1.00" stroke-linecap="butt" stroke-linejoin="miter">
	<path stroke='black'  d='M62.2,144.4 L71.2,144.4 M615.0,144.4 L606.0,144.4  '/>	<g transform="translate(53.9,148.3)" stroke="none" fill="black" font-family="Arial" font-size="12.00"  text-anchor="end">
		<text><tspan font-family="Arial" > 1620</tspan></text>
	</g>
</g>
<g fill="none" color="black" stroke="currentColor" stroke-width="1.00" stroke-linecap="butt" stroke-linejoin="miter">
	<path stroke='black'  d='M62.2,101.8 L71.2,101.8 M615.0,101.8 L606.0,101.8  '/>	<g transform="translate(53.9,105.7)" stroke="none" fill="black" font-family="Arial" font-size="12.00"  text-anchor="end">
		<text><tspan font-family="Arial" > 1640</tspan></text>
	</g>
</g>
<g fill="none" color="black" stroke="currentColor" stroke-width="1.00" stroke-linecap="butt" stroke-linejoin="miter">
	<path stroke='black'  d='M62.2,59.3 L71.2,59.3 M615.0,59.3 L606.0,59.3  '/>	<g transform="translate(53.9,63.2)" stroke="none" fill="black" font-family="Arial" font-size="12.00"  text-anchor="end">
		<text><tspan font-family="Arial" > 1660</tspan></text>
	</g>
</g>
<g fill="none" color="black" stroke="currentColor" stroke-width="1.00" stroke-linecap="butt" stroke-linejoin="miter">
	<path stroke='black'  d='M62.2,392.0 L62.2,383.0 M62.2,18.1 L62.2,27.1  '/>	<g transform="translate(62.2,413.9)" stroke="none" fill="black" font-family="Arial" font-size="12.00"  text-anchor="middle">
		<text><tspan font-family="Arial" > 0</tspan></text>
	</g>
</g>
<g fill="none" color="black" stroke="currentColor" stroke-width="1.00" stroke-linecap="butt" stroke-linejoin="miter">
	<path stroke='black'  d='M118.0,392.0 L118.0,383.0 M118.0,18.1 L118.0,27.1  '/>	<g transform="translate(118.0,413.9)" stroke="none" fill="black" font-family="Arial" font-size="12.00"  text-anchor="middle">
		<text><tspan font-family="Arial" > 10</tspan></text>
	</g>
</g>
<g fill="none" color="black" stroke="currentColor" stroke-width="1.00" stroke-linecap="butt" stroke-linejoin="miter">
	<path stroke='black'  d='M173.9,392.0 L173.9,383.0 M173.9,18.1 L173.9,27.1  '/>	<g transform="translate(173.9,413.9)" stroke="none" fill="black" font-family="Arial" font-size="12.00"  text-anchor="middle">
		<text><tspan font-family="Arial" > 20</tspan></text>
	</g>
</g>
<g fill="none" color="black" stroke="currentColor" stroke-width="1.00" stroke-linecap="butt" stroke-linejoin="miter">
	<path stroke='black'  d='M229.7,392.0 L229.7,383.0 M229.7,18.1 L229.7,27.1  '/>	<g transform="translate(229.7,413.9)" stroke="none" fill="black" font-family="Arial" font-size="12.00"  text-anchor="middle">
		<text><tspan font-family="Arial" > 30</tspan></text>
	</g>
</g>
<g fill="none" color="black" stroke="currentColor" stroke-width="1.00" stroke-linecap="butt" stroke-linejoin="miter">
	<path stroke='black'  d='M285.6,392.0 L285.6,383.0 M285.6,18.1 L285.6,27.1  '/>	<g transform="translate(285.6,413.9)" stroke="none" fill="black" font-family="Arial" font-size="12.00"  text-anchor="middle">
		<text><tspan font-family="Arial" > 40</tspan></text>
	</g>
</g>
<g fill="none" color="black" stroke="currentColor" stroke-width="1.00" stroke-linecap="butt" stroke-linejoin="miter">
	<path stroke='black'  d='M341.4,392.0 L341.4,383.0 M341.4,18.1 L341.4,27.1  '/>	<g transform="translate(341.4,413.9)" stroke="none" fill="black" font-family="Arial" font-size="12.00"  text-anchor="middle">
		<text><tspan font-family="Arial" > 50</tspan></text>
	</g>
</g>
<g fill="none" color="black" stroke="currentColor" stroke-width="1.00" stroke-linecap="butt" stroke-linejoin="miter">
	<path stroke='black'  d='M397.2,392.0 L397.2,383.0 M397.2,18.1 L397.2,27.1  '/>	<g transform="translate(397.2,413.9)" stroke="none" fill="black" font-family="Arial" font-size="12.00"  text-anchor="middle">
		<text><tspan font-family="Arial" > 60</tspan></text>
	</g>
</g>
<g fill="none" color="black" stroke="currentColor" stroke-width="1.00" stroke-linecap="butt" stroke-linejoin="miter">
	<path stroke='black'  d='M453.1,392.0 L453.1,383.0 M453.1,18.1 L453.1,27.1  '/>	<g transform="translate(453.1,413.9)" stroke="none" fill="black" font-family="Arial" font-size="12.00"  text-anchor="middle">
		<text><tspan font-family="Arial" > 70</tspan></text>
	</g>
</g>
<g fill="none" color="black" stroke="currentColor" stroke-width="1.00" stroke-linecap="butt" stroke-linejoin="miter">
	<path stroke='black'  d='M508.9,392.0 L508.9,383.0 M508.9,18.1 L508.9,27.1  '/>	<g transform="translate(508.9,413.9)" stroke="none" fill="black" font-family="Arial" font-size="12.00"  text-anchor="middle">
		<text><tspan font-family="Arial" > 80</tspan></text>
	</g>
</g>
<g fill="none" color="black" stroke="currentColor" stroke-width="1.00" stroke-linecap="butt" stroke-linejoin="miter">
	<path stroke='black'  d='M564.7,392.0 L564.7,383.0 M564.7,18.1 L564.7,27.1  '/>	<g transform="translate(564.7,413.9)" stroke="none" fill="black" font-family="Arial" font-size="12.00"  text-anchor="middle">
		<text><tspan font-family="Arial" > 90</tspan></text>
	</g>
</g>
<g fill="none" color="black" stroke="currentColor" stroke-width="1.00" stroke-linecap="butt" stroke-linejoin="miter">
</g>
<g fill="none" color="black" stroke="currentColor" stroke-width="1.00" stroke-linecap="butt" stroke-linejoin="miter">
	<path stroke='black'  d='M62.2,18.1 L62.2,392.0 L615.0,392.0 L615.0,18.1 L62.2,18.1 Z  '/></g>
<g fill="none" color="black" stroke="currentColor" stroke-width="1.00" stroke-linecap="butt" stroke-linejoin="miter">
</g>
	<g id="gnuplot_plot_1" ><title>pages+cached+noexternal+nofonts+nosvg+noimg+nocss</title>
<g fill="none" color="black" stroke="currentColor" stroke-width="1.00" stroke-linecap="butt" stroke-linejoin="miter">
	<g transform="translate(533.3,431.9)" stroke="none" fill="black" font-family="Arial" font-size="12.00"  text-anchor="end">
		<text><tspan font-family="Arial" >pages+cached+noexternal+nofonts+nosvg+noimg+nocss</tspan></text>
	</g>
</g>
<g fill="none" color="black" stroke="currentColor" stroke-width="1.00" stroke-linecap="butt" stroke-linejoin="miter">
	<path stroke='rgb(148,   0, 211)'  d='M541.6,428.0 L583.8,428.0 M62.2,52.8 L67.8,50.3 L73.4,52.8 L79.0,44.9 L84.5,45.9 L90.1,53.5
		L95.7,49.0 L101.3,47.3 L106.9,50.3 L112.5,49.0 L118.0,51.6 L123.6,54.1 L129.2,39.7 L134.8,50.2
		L140.4,49.4 L146.0,52.6 L151.5,50.6 L157.1,35.7 L162.7,51.0 L168.3,47.0 L173.9,25.3 L179.5,51.4
		L185.0,45.8 L190.6,54.7 L196.2,55.9 L201.8,48.5 L207.4,47.9 L213.0,46.5 L218.5,52.2 L224.1,51.0
		L229.7,54.5 L235.3,52.5 L240.9,43.4 L246.5,51.0 L252.1,45.6 L257.6,49.0 L263.2,51.2 L268.8,46.0
		L274.4,52.1 L280.0,47.2 L285.6,51.7 L291.1,50.9 L296.7,56.5 L302.3,50.8 L307.9,49.6 L313.5,49.4
		L319.1,50.6 L324.6,50.4 L330.2,56.6 L335.8,48.0 L341.4,51.5 L347.0,51.0 L352.6,51.3 L358.1,52.4
		L363.7,46.2 L369.3,57.4 L374.9,53.5 L380.5,53.0 L386.1,51.6 L391.6,49.2 L397.2,44.9 L402.8,53.5
		L408.4,55.1 L414.0,53.9 L419.6,48.7 L425.1,52.6 L430.7,45.3 L436.3,54.8 L441.9,48.8 L447.5,52.7
		L453.1,53.7 L458.7,44.2 L464.2,51.8 L469.8,54.8 L475.4,38.0 L481.0,47.6 L486.6,54.0 L492.2,52.0
		L497.7,53.1 L503.3,44.2 L508.9,51.8 L514.5,47.8 L520.1,50.7 L525.7,51.9 L531.2,47.5 L536.8,46.8
		L542.4,52.6 L548.0,51.4 L553.6,47.0 L559.2,50.0 L564.7,51.2 L570.3,48.2 L575.9,52.0 L581.5,55.6
		L587.1,51.2 L592.7,53.9 L598.2,49.8 L603.8,47.5 L609.4,54.7 L615.0,48.7  '/></g>
	</g>
	<g id="gnuplot_plot_2" ><title>pages+cached+noexternal+nofonts+nosvg+noimg+nocss+nojs</title>
<g fill="none" color="black" stroke="currentColor" stroke-width="1.00" stroke-linecap="butt" stroke-linejoin="miter">
	<g transform="translate(533.3,449.9)" stroke="none" fill="black" font-family="Arial" font-size="12.00"  text-anchor="end">
		<text><tspan font-family="Arial" >pages+cached+noexternal+nofonts+nosvg+noimg+nocss+nojs</tspan></text>
	</g>
</g>
<g fill="none" color="black" stroke="currentColor" stroke-width="1.00" stroke-linecap="butt" stroke-linejoin="miter">
	<path stroke='rgb(  0, 158, 115)'  d='M541.6,446.0 L583.8,446.0 M62.2,379.3 L67.8,382.9 L73.4,381.1 L79.0,384.5 L84.5,379.5 L90.1,382.9
		L95.7,380.2 L101.3,383.8 L106.9,379.4 L112.5,379.9 L118.0,379.7 L123.6,377.4 L129.2,384.3 L134.8,380.3
		L140.4,381.5 L146.0,380.3 L151.5,380.2 L157.1,379.2 L162.7,381.5 L168.3,380.7 L173.9,378.8 L179.5,382.9
		L185.0,381.0 L190.6,380.7 L196.2,379.1 L201.8,379.9 L207.4,378.6 L213.0,379.7 L218.5,380.9 L224.1,379.3
		L229.7,379.7 L235.3,382.7 L240.9,379.2 L246.5,381.1 L252.1,381.7 L257.6,378.7 L263.2,382.6 L268.8,380.1
		L274.4,380.6 L280.0,382.9 L285.6,383.4 L291.1,378.9 L296.7,382.3 L302.3,381.7 L307.9,384.8 L313.5,379.7
		L319.1,379.1 L324.6,378.7 L330.2,377.7 L335.8,378.9 L341.4,381.3 L347.0,380.9 L352.6,380.3 L358.1,380.7
		L363.7,380.3 L369.3,381.7 L374.9,379.5 L380.5,378.8 L386.1,378.7 L391.6,379.1 L397.2,381.0 L402.8,379.9
		L408.4,378.8 L414.0,380.8 L419.6,382.8 L425.1,382.2 L430.7,380.5 L436.3,380.9 L441.9,379.5 L447.5,383.9
		L453.1,380.6 L458.7,380.9 L464.2,380.2 L469.8,380.8 L475.4,380.4 L481.0,379.6 L486.6,379.3 L492.2,379.8
		L497.7,381.3 L503.3,379.4 L508.9,381.6 L514.5,377.6 L520.1,384.1 L525.7,378.0 L531.2,382.1 L536.8,380.1
		L542.4,381.0 L548.0,382.7 L553.6,379.3 L559.2,380.4 L564.7,380.6 L570.3,380.8 L575.9,379.4 L581.5,379.7
		L587.1,384.0 L592.7,382.8 L598.2,380.7 L603.8,381.5 L609.4,378.0 L615.0,384.5  '/></g>
	</g>
	<g id="gnuplot_plot_3" ><title>score p10=2336</title>
<g fill="none" color="black" stroke="currentColor" stroke-width="1.00" stroke-linecap="butt" stroke-linejoin="miter">
	<g transform="translate(533.3,467.9)" stroke="none" fill="black" font-family="Arial" font-size="12.00"  text-anchor="end">
		<text><tspan font-family="Arial" >score p10=2336</tspan></text>
	</g>
</g>
<g fill="none" color="black" stroke="currentColor" stroke-width="1.00" stroke-linecap="butt" stroke-linejoin="miter">
	<path stroke='rgb( 86, 180, 233)'  d='M541.6,464.0 L583.8,464.0  '/></g>
	</g>
	<g id="gnuplot_plot_4" ><title>score median=4000</title>
<g fill="none" color="black" stroke="currentColor" stroke-width="1.00" stroke-linecap="butt" stroke-linejoin="miter">
	<g transform="translate(533.3,485.9)" stroke="none" fill="black" font-family="Arial" font-size="12.00"  text-anchor="end">
		<text><tspan font-family="Arial" >score median=4000</tspan></text>
	</g>
</g>
<g fill="none" color="black" stroke="currentColor" stroke-width="1.00" stroke-linecap="butt" stroke-linejoin="miter">
	<path stroke='rgb(230, 159,   0)'  d='M541.6,482.0 L583.8,482.0  '/></g>
	</g>
<g fill="none" color="#FFFFFF" stroke="rgb(230, 159,   0)" stroke-width="2.00" stroke-linecap="butt" stroke-linejoin="miter">
</g>
<g fill="none" color="black" stroke="currentColor" stroke-width="2.00" stroke-linecap="butt" stroke-linejoin="miter">
</g>
<g fill="none" color="black" stroke="black" stroke-width="1.00" stroke-linecap="butt" stroke-linejoin="miter">
</g>
<g fill="none" color="black" stroke="currentColor" stroke-width="1.00" stroke-linecap="butt" stroke-linejoin="miter">
	<path stroke='black'  d='M62.2,18.1 L62.2,392.0 L615.0,392.0 L615.0,18.1 L62.2,18.1 Z  '/></g>
<g fill="none" color="black" stroke="currentColor" stroke-width="1.00" stroke-linecap="butt" stroke-linejoin="miter">
</g>
</g>
</svg>
